assets/images/icons/src/credit-card.svg

<?xml version="1.0" encoding="utf-8"?>
<!-- Generated by IcoMoon.io -->
<!DOCTYPE svg PUBLIC "-//W3C//DTD SVG 1.1//EN" "http://www.w3.org/Graphics/SVG/1.1/DTD/svg11.dtd">
<svg version="1.1" xmlns="http://www.w3.org/2000/svg" xmlns:xlink="http://www.w3.org/1999/xlink" width="15" height="14" viewBox="0 0 15 14">
<path fill="#444444" d="M13.75 1q0.516 0 0.883 0.367t0.367 0.883v9.5q0 0.516-0.367 0.883t-0.883 0.367h-12.5q-0.516 0-0.883-0.367t-0.367-0.883v-9.5q0-0.516 0.367-0.883t0.883-0.367h12.5zM1.25 2q-0.102 0-0.176 0.074t-0.074 0.176v1.75h13v-1.75q0-0.102-0.074-0.176t-0.176-0.074h-12.5zM13.75 12q0.102 0 0.176-0.074t0.074-0.176v-4.75h-13v4.75q0 0.102 0.074 0.176t0.176 0.074h12.5zM2 11v-1h2v1h-2zM5 11v-1h3v1h-3z"></path>
</svg>

<svg xmlns="http://www.w3.org/2000/svg" width="15" height="14" viewBox="0 0 15 14"><path fill="#444" d="M13.75 1q.516 0 .883.367T15 2.25v9.5q0 .516-.367.883T13.75 13H1.25q-.516 0-.883-.367T0 11.75v-9.5q0-.516.367-.883T1.25 1h12.5zM1.25 2q-.102 0-.176.074T1 2.25V4h13V2.25q0-.102-.074-.176T13.75 2H1.25zm12.5 10q.102 0 .176-.074T14 11.75V7H1v4.75q0 .102.074.176T1.25 12h12.5zM2 11v-1h2v1H2zm3 0v-1h3v1H5z"/></svg>
